X:13
T:Les Moutons
R:Bourr\'ee
C:trad
N:original url: www.wolfram.claranet.de
D:ADP, Bourr\'ees en Berry et Bourbonnais, Track 5
M:4/4
L:1/4
Q:1/4=198
K:G
|:d>cBG| A>cBc| d>cBG| A2B2:||: B>cBA| B>GE2| A G/F/GE| AG/F/GE| B>cBA| BGE2| AG/F/Gc| A2G2:|
